!! 00000] TT[WS
!!!OTL: Xioying gaocuang
!!!ARE: Asia, China, Shanxi Zuoquan
!! Ethnic Group: Han
!! WI, 295
!!!SCT: J0356
!!!YEM: Copyright 1995, estate of Helmut Schaffrath.
**kern
*ICvox
*Ivox
*M2/4
*k[f#]
*G:
{4a
8b
8a
=1
8g
8f#
8e
8d
=2
4a
8dd
8a
=3
8g
8f#
8e
8d}
=4
{4a
4a
=5
4b
8a
8b
=6
4g
8d
8e
=7
2g}
=8
{4b
8g
8a
=9
4b
8g
8a
=10
4b
8g
8a
=11
8b
16a
16b
8f#
8e}
=12
{8d
8B
8d
8e
=13
8.b
16b
8a
8g
=14
8g
8B
8d
8e
=15
2d}
=16
{4b
8g
8a
=17
8b
16a
16b
8f#
8e
=18
8d
8B
8d
8e
=19
8.b
16b
8a
8g
=20
8g
8B
8d
8e
=21
2d}
==
!!!AGN: Xiaodiao. Xinminge, Qingge, Xuanchuan
!! Neue Text. Politische Liede
!!!ONB: ESAC (Essen Associative Code) Database: CHINA
!!!AMT: simple duple
!!!AIN: vox
!!!EED: Helmut Schaffrath
!!!EEV: 1.0
*-
